public/img/Vector59.svg

<svg fill="none" height="75" viewBox="0 0 485 75" width="485" xmlns="http://www.w3.org/2000/svg"><path d="m437.945 14.3485c-59.937-5.25348-120.353-7.1707-182.103-7.40274-55.316-.20786-164.5921-11.02307-214.2562-.00033-25.0231 5.55377-45.14149 31.45107-38.19913 41.81217 4.7121 7.0325 29.96543 15.9538 48.27943 19.4664 44.4016 8.5163 123.1809 2.2862 172.6829 3.7014 54.826 1.5674 115.447 2.1978 168.4-3.7014 22.121-2.4643 43.101-6.2361 62.326-10.7385 8.714-2.0407 22.316-5.0367 26.354-8.7279 7.778-7.112-15.144-17.1477-28.858-21.5228-14.626-12.8863-43.042-9.4116-69.178-10.4187" stroke="#30e1b9" stroke-linecap="round" stroke-linejoin="round" stroke-width="4"/></svg>

<svg width="485" height="75" viewBox="0 0 485 75" fill="none" xmlns="http://www.w3.org/2000/svg">
<path d="M437.945 14.3485C378.008 9.09502 317.592 7.1778 255.842 6.94576C200.526 6.7379 91.2499 -4.07731 41.5858 6.94543C16.5627 12.4992 -3.55569 38.3965 3.38667 48.7576C8.09877 55.7901 33.3521 64.7114 51.6661 68.224C96.0677 76.7403 174.847 70.5102 224.349 71.9254C279.175 73.4928 339.796 74.1232 392.749 68.224C414.87 65.7597 435.85 61.9879 455.075 57.4855C463.789 55.4448 477.391 52.4488 481.429 48.7576C489.207 41.6456 466.285 31.6099 452.571 27.2348C437.945 14.3485 409.529 17.8232 383.393 16.8161" stroke="#30E1B9" stroke-width="4" stroke-linecap="round" stroke-linejoin="round"/>
</svg>
